source/img/logo.svg

<svg width="221" height="195" viewBox="0 0 221 195" fill="none" xmlns="http://www.w3.org/2000/svg">
<path opacity="0.03" fill-rule="evenodd" clip-rule="evenodd" d="M144.291 91.9839L90.7698 0.0944824L75.6585 26.1357L60.4808 0.109444L0.730957 102.846H43.6485L43.649 102.845H77.3258L130.847 194.735L145.958 168.694L161.136 194.721L220.886 91.9839H190.6H177.968H144.291ZM101.303 91.9839H101.294H70.9996L70.9997 91.984H49.9718L75.6649 47.8486L101.303 91.9839ZM89.9591 102.845L130.829 173.014L139.632 157.846L139.629 157.842L139.63 157.84L107.615 102.845H107.614L107.614 102.845H89.9591ZM37.3383 91.9849H19.6762L60.4937 21.8014L69.3522 36.9917L37.3383 91.9849ZM90.7875 21.8147L81.985 36.984L81.9873 36.988L81.9849 36.9922L113.93 91.9839H131.658L90.7875 21.8147ZM120.248 102.845H150.617L150.617 102.845H171.646L145.947 146.99L120.248 102.845ZM184.277 102.845L152.264 157.837L161.123 173.029L201.941 102.845H184.277Z" fill="#201D26"/>
<path d="M19.4496 88.9697H23.8048L28.6343 96.7582L33.4638 88.9697H37.7759V107.359H33.7657V95.3303L28.5912 103.205H28.505L23.3736 95.4168V107.359H19.4065V88.9697H19.4496Z" fill="#201D26"/>
<path d="M41.1398 88.9697H54.9815V92.5611H45.15V96.2822H53.8172V99.8735H45.15V103.724H55.1109V107.359H41.1398V88.9697Z" fill="#201D26"/>
<path d="M57.6543 88.9697H64.8123C70.5905 88.9697 74.5576 92.9505 74.5576 98.186C74.5576 103.378 70.5905 107.402 64.8123 107.402H57.6543V88.9697ZM64.8123 103.724C68.1326 103.724 70.3318 101.474 70.3318 98.186C70.3318 94.9409 68.0895 92.6476 64.8123 92.6476H61.7076V103.768H64.8123V103.724Z" fill="#201D26"/>
<path d="M77.2746 88.9697H81.3279V107.359H77.2746V88.9697Z" fill="#201D26"/>
<path d="M91.16 88.8398H94.8684L102.759 107.359H98.5336L96.8519 103.248H89.0902L87.4085 107.359H83.312L91.16 88.8398ZM95.3858 99.6571L92.9711 93.686L90.5132 99.6571H95.3858Z" fill="#201D26"/>
<path d="M103.492 88.9696H105.734L110.995 104.287L116.04 88.8831H117.765L122.81 104.287L128.071 88.9696H130.227L123.672 107.532H121.861L116.816 92.6042L111.771 107.532H110.046L103.492 88.9696Z" fill="#201D26"/>
<path d="M131.133 98.1859C131.133 93.1235 134.927 88.6667 140.533 88.6667C146.095 88.6667 149.847 93.0802 149.847 98.1859C149.847 103.248 146.052 107.705 140.447 107.705C134.884 107.705 131.133 103.292 131.133 98.1859ZM147.691 98.1859C147.691 93.9888 144.629 90.5706 140.447 90.5706C136.264 90.5706 133.245 93.9456 133.245 98.1859C133.245 102.383 136.307 105.801 140.49 105.801C144.716 105.758 147.691 102.383 147.691 98.1859Z" fill="#201D26"/>
<path d="M153.167 88.9697H161.058C163.3 88.9697 165.111 89.662 166.275 90.8303C167.181 91.7389 167.698 92.9937 167.698 94.5082C167.698 97.5803 165.585 99.3543 162.74 99.8735L168.345 107.359H165.801L160.497 100.22H155.237V107.359H153.167V88.9697ZM160.885 98.3591C163.645 98.3591 165.586 96.9312 165.586 94.5082C165.586 92.2582 163.861 90.8736 160.885 90.8736H155.237V98.3591H160.885Z" fill="#201D26"/>
<path d="M187.405 104.676L188.698 103.162C190.595 104.893 192.45 105.758 194.994 105.758C197.452 105.758 199.09 104.46 199.09 102.556C199.09 100.825 198.185 99.8734 194.304 99.0513C190.078 98.1427 188.138 96.7581 188.138 93.686C188.138 90.7869 190.682 88.6667 194.174 88.6667C196.848 88.6667 198.745 89.4456 200.643 90.9167L199.435 92.5177C197.71 91.1331 196.029 90.5273 194.131 90.5273C191.76 90.5273 190.207 91.8254 190.207 93.5562C190.207 95.2869 191.156 96.2821 195.209 97.1475C199.306 98.0561 201.203 99.5273 201.203 102.426C201.203 105.585 198.573 107.619 194.951 107.619C192.018 107.619 189.604 106.667 187.405 104.676Z" fill="#201D26"/>
<path d="M175.848 97.4503L186.37 88.8831H184.214H183.653L173.132 97.4071H173.175V88.8831H173.132H171.062V107.445H173.132H173.175V99.6138L174.382 98.6186L183.653 107.445H184.171H186.37L175.848 97.4503Z" fill="#201D26"/>
</svg>

<svg width="221" height="195" fill="none" xmlns="http://www.w3.org/2000/svg"><path opacity=".03" fill-rule="evenodd" clip-rule="evenodd" d="M144.291 91.984L90.77.094 75.659 26.136 60.48.109.73 102.846h42.917l.001-.001h33.677l53.521 91.89 15.111-26.041 15.178 26.027 59.75-102.737H144.29zm-42.988 0H49.972l25.693-44.135 25.638 44.135zm-11.344 10.861l40.87 70.169 8.803-15.168-.003-.004.001-.002-32.015-54.995H89.959zm-52.62-10.86H19.675L60.494 21.8l8.858 15.19-32.014 54.994zm53.448-70.17l-8.802 15.169.002.004-.002.004 31.945 54.992h17.728l-40.87-70.17zm29.461 81.03h51.398l-25.699 44.145-25.699-44.145zm64.029 0l-32.013 54.992 8.859 15.192 40.818-70.184h-17.664z" fill="#201D26"/><path d="M19.45 88.97h4.355l4.83 7.788 4.829-7.788h4.312v18.389h-4.01V95.33l-5.175 7.875h-.086l-5.131-7.788v11.942h-3.967v-18.39h.043zm21.69 0h13.84v3.591h-9.83v3.721h8.667v3.592H45.15v3.85h9.96v3.635H41.14v-18.39zm16.514 0h7.158c5.779 0 9.746 3.98 9.746 9.216 0 5.192-3.968 9.216-9.746 9.216h-7.158V88.97zm7.158 14.754c3.32 0 5.52-2.25 5.52-5.538 0-3.245-2.242-5.538-5.52-5.538h-3.104v11.12h3.104v-.044zM77.275 88.97h4.053v18.389h-4.053v-18.39zm13.885-.13h3.708l7.891 18.519h-4.225l-1.682-4.111H89.09l-1.681 4.111h-4.097l7.848-18.52zm4.226 10.817l-2.415-5.971-2.458 5.971h4.873zm8.106-10.687h2.242l5.261 15.317 5.045-15.404h1.725l5.045 15.404 5.261-15.317h2.156l-6.555 18.562h-1.811l-5.045-14.928-5.045 14.928h-1.725l-6.554-18.562zm27.641 9.216c0-5.063 3.794-9.52 9.4-9.52 5.562 0 9.314 4.414 9.314 9.52 0 5.062-3.795 9.519-9.4 9.519-5.563 0-9.314-4.413-9.314-9.52zm16.558 0c0-4.197-3.062-7.615-7.244-7.615-4.183 0-7.202 3.375-7.202 7.615 0 4.197 3.062 7.615 7.245 7.615 4.226-.043 7.201-3.418 7.201-7.615zm5.476-9.216h7.891c2.242 0 4.053.692 5.217 1.86.906.909 1.423 2.164 1.423 3.678 0 3.072-2.113 4.846-4.958 5.366l5.605 7.485h-2.544l-5.304-7.139h-5.26v7.139h-2.07v-18.39zm7.718 9.39c2.76 0 4.701-1.429 4.701-3.852 0-2.25-1.725-3.634-4.701-3.634h-5.648v7.485h5.648zm26.52 6.316l1.293-1.514c1.897 1.731 3.752 2.596 6.296 2.596 2.458 0 4.096-1.298 4.096-3.202 0-1.731-.905-2.683-4.786-3.505-4.226-.908-6.166-2.293-6.166-5.365 0-2.9 2.544-5.02 6.036-5.02 2.674 0 4.571.78 6.469 2.25l-1.208 1.602c-1.725-1.385-3.406-1.99-5.304-1.99-2.371 0-3.924 1.297-3.924 3.028 0 1.73.949 2.726 5.002 3.591 4.097.91 5.994 2.38 5.994 5.279 0 3.159-2.63 5.193-6.252 5.193-2.933 0-5.347-.952-7.546-2.943zm-11.557-7.226l10.522-8.567h-2.717l-10.521 8.524h.043v-8.524h-2.113v18.562h2.113v-7.831l1.207-.995 9.271 8.826h2.717l-10.522-9.995z" fill="#201D26"/></svg>
